packages/foundations/assets/icons/functional/images/notification/information_circle_16_filled.svg

<svg width="16" height="16" viewBox="0 0 16 16" fill="none" xmlns="http://www.w3.org/2000/svg">
<g clip-path="url(#clip0_2214_8094)">
<path fill-rule="evenodd" clip-rule="evenodd" d="M7.99998 1.60001C11.525 1.60001 14.4 4.47501 14.4 8.00001C14.4 11.525 11.525 14.4 7.99998 14.4C4.47498 14.4 1.59998 11.525 1.59998 8.00001C1.59998 4.47501 4.47498 1.60001 7.99998 1.60001ZM8.79998 6.40001H5.94998V8.00001H7.19998V9.60001H5.59998V11.2H10.4V9.60001H8.79998V6.40001ZM7.99998 3.57501C7.44998 3.57501 6.97498 4.02501 6.97498 4.57501C6.97498 5.15001 7.44998 5.60001 7.99998 5.60001C8.54998 5.60001 9.02498 5.15001 9.02498 4.57501C9.02498 4.02501 8.54998 3.57501 7.99998 3.57501Z" fill="#1A1C1F"/>
</g>
<defs>
<clipPath id="clip0_2214_8094">
<rect width="16" height="16" fill="white"/>
</clipPath>
</defs>
</svg>

<svg xmlns="http://www.w3.org/2000/svg" width="16" height="16" fill="none"><g clip-path="url(#a)"><path fill="#1A1C1F" fill-rule="evenodd" d="M8 1.6c3.525 0 6.4 2.875 6.4 6.4s-2.875 6.4-6.4 6.4S1.6 11.525 1.6 8 4.475 1.6 8 1.6m.8 4.8H5.95V8H7.2v1.6H5.6v1.6h4.8V9.6H8.8zM8 3.575c-.55 0-1.025.45-1.025 1A1.03 1.03 0 0 0 8 5.6c.55 0 1.025-.45 1.025-1.025 0-.55-.475-1-1.025-1" clip-rule="evenodd"/></g><defs><clipPath id="a"><path fill="#fff" d="M0 0h16v16H0z"/></clipPath></defs></svg>
